X: 2835
T: Barbara Bane Of New Deer
R: barndance
M: 4/4
K: Dmajor
[M:2/4][L:1/16]
fe|d4 A2d2|FAdf a2gf|g2B2 gfed|cAce agfe|
d4 A2d2|FAdf a2gf|g2B2 fedc|d4 d2:|
de|f2B2 Bcde|fBdf bfdB|e2A2 ABcd|eAce aecA|
f2B2 Bcde|fBdf bfdB|e2A2 fedc|B4 B2
de|f2B2 Bcde|fBdf bfdB|e2A2 ABcd|eAce aece|
d4 A2d2|FAdf a2gf|g2B2 fedc|d4 d2||

